X: 7133
T: Christow, The
R: jig
M: 6/8
K: Aminor
|:"Am" c2 c"G" BcB|"F" (AB)c"C"e2 e|"Dm" c2 e"G" dcB|"Em" (GA)B"Am" c2 A|
"Am" (de)B"G" GEB|"F" (AB)c"C" e2 B|"Dm" c2 e"G" dcB|1 "Am" A3 A2 B:|2 "Am" A3 A2 z||
|:"Am" cBA (eg)e|"Dm" fed f2 e|"G" dBG g2 f|"C" efg"Em"{/^d} e2 =d|
"Am" (cB)A "G" GEB|1 ("F" AB)c"C" e2 B|"Dm" c2 e"G" dcB|"Em" (GE)B"Am" A2 z:|
[2 ("F" AB)c"C" e2 g|"Dm"{/g} a2 g"G" edB|"Em" (GA)B"Am" A2 z|

